img/image/features7.svg

<svg width="72" height="76" viewBox="0 0 72 76" fill="none" xmlns="http://www.w3.org/2000/svg">
<g opacity="0.8">
<path d="M59.5775 12.2293C58.5742 8.06043 55.27 5.00006 51.3458 5.00006C46.6259 5.00006 42.7996 9.42535 42.7996 14.8842C42.7996 20.3433 46.6259 24.7686 51.3458 24.7686C55.2669 24.7686 58.5687 21.7132 59.5749 17.5497" stroke="#E5EEF7" stroke-width="2" stroke-miterlimit="10" stroke-linecap="round" stroke-linejoin="round"/>
<path d="M12.8325 28.1804L14.4776 23.3489C15.8551 19.3041 19.2297 16.6472 22.9875 16.6472H42.5072" stroke="#E5EEF7" stroke-width="2" stroke-miterlimit="10" stroke-linecap="round" stroke-linejoin="round"/>
<path d="M57.2661 22.6679C57.3577 22.8911 57.4436 23.1175 57.5225 23.3489L59.1675 28.1804" stroke="#E5EEF7" stroke-width="2" stroke-miterlimit="10" stroke-linecap="round" stroke-linejoin="round"/>
<path d="M56.1619 23.6308C57.5109 24.7936 58.5519 26.3695 59.1675 28.1805L61.3971 34.729" stroke="#E5EEF7" stroke-width="2" stroke-miterlimit="10" stroke-linecap="round" stroke-linejoin="round"/>
<path d="M10.6028 34.729L12.8324 28.1805C14.1915 24.1862 17.5253 21.5603 21.2366 21.5603H44.4887" stroke="#E5EEF7" stroke-width="2" stroke-miterlimit="10" stroke-linecap="round" stroke-linejoin="round"/>
<path d="M14.8633 66.9571V68.2636C14.8633 69.7753 13.8042 71.0002 12.4971 71.0002H7.4746C6.16755 71.0002 5.1084 69.7753 5.1084 68.2636V65.3102" stroke="#E5EEF7" stroke-width="2" stroke-miterlimit="10" stroke-linecap="round" stroke-linejoin="round"/>
<path d="M66.8917 65.3102V68.2636C66.8917 69.7753 65.8325 71.0002 64.5255 71.0002H59.5029C58.1959 71.0002 57.1367 69.7753 57.1367 68.2636V66.9571" stroke="#E5EEF7" stroke-width="2" stroke-miterlimit="10" stroke-linecap="round" stroke-linejoin="round"/>
<path d="M22.1062 49.9219H4.3645" stroke="#E5EEF7" stroke-width="2" stroke-miterlimit="10" stroke-linecap="round" stroke-linejoin="round"/>
<path d="M67.6356 49.9219H49.8938" stroke="#E5EEF7" stroke-width="2" stroke-miterlimit="10" stroke-linecap="round" stroke-linejoin="round"/>
<path d="M43.8545 58.0981H52.0862C52.4982 58.0981 52.8934 57.9089 53.1848 57.572L54.3701 56.2009C55.2267 55.2101 56.3886 54.6535 57.6 54.6535H67.6358" stroke="#E5EEF7" stroke-width="2" stroke-miterlimit="10" stroke-linecap="round" stroke-linejoin="round"/>
<path d="M4.3645 54.6535H14.4001C15.6116 54.6535 16.7734 55.2101 17.63 56.2009L18.8155 57.572C19.1068 57.9089 19.502 58.0982 19.9139 58.0981H28.1456" stroke="#E5EEF7" stroke-width="2" stroke-miterlimit="10" stroke-linecap="round" stroke-linejoin="round"/>
<path d="M25.6814 66.6294H63.5401C66.1131 66.6294 68.199 64.2169 68.199 61.2409V41.9288C68.199 41.148 68.0143 40.3821 67.6649 39.7139C67.3155 39.0458 66.8147 38.501 66.2168 38.1385L61.1272 35.0529H48.8556" stroke="#E5EEF7" stroke-width="2" stroke-miterlimit="10" stroke-linecap="round" stroke-linejoin="round"/>
<path d="M44.2556 35.0529H10.8729L5.78342 38.1384C5.18546 38.5009 4.68465 39.0457 4.33522 39.7138C3.98578 40.3819 3.80105 41.1478 3.80103 41.9287V61.2409C3.80103 64.2169 5.88694 66.6294 8.46004 66.6294H21.0813" stroke="#E5EEF7" stroke-width="2" stroke-miterlimit="10" stroke-linecap="round" stroke-linejoin="round"/>
<path d="M57.7703 58.7549H60.9579" stroke="#E5EEF7" stroke-width="2" stroke-miterlimit="10" stroke-linecap="round" stroke-linejoin="round"/>
<path d="M11.0422 58.7549H14.2298" stroke="#E5EEF7" stroke-width="2" stroke-miterlimit="10" stroke-linecap="round" stroke-linejoin="round"/>
<path d="M7.13916 37.8908V43.4926C7.13914 43.7163 7.21014 43.9323 7.33868 44.0995C7.46722 44.2667 7.64435 44.3736 7.83648 44.3998L16.5944 45.593C17.7976 45.7569 19.0121 45.4237 20.0235 44.6524L21.5882 43.459C22.1541 43.0275 22.018 42.0262 21.3649 41.8164L13.3373 39.2359C13.3158 39.2291 13.2947 39.2212 13.2738 39.2121L8.20395 37.0345C7.68789 36.8129 7.13916 37.2542 7.13916 37.8908Z" stroke="#E5EEF7" stroke-width="2" stroke-miterlimit="10" stroke-linecap="round" stroke-linejoin="round"/>
<path d="M64.861 37.8908V43.4926C64.861 43.7163 64.7901 43.9323 64.6615 44.0995C64.533 44.2667 64.3558 44.3736 64.1637 44.3998L55.4058 45.593C54.2026 45.7569 52.9881 45.4237 51.9767 44.6524L50.412 43.459C49.8461 43.0275 49.9821 42.0262 50.6352 41.8164L58.6629 39.2359C58.6844 39.2291 58.7055 39.2212 58.7264 39.2121L63.7962 37.0345C64.3123 36.8129 64.861 37.2542 64.861 37.8908Z" stroke="#E5EEF7" stroke-width="2" stroke-miterlimit="10" stroke-linecap="round" stroke-linejoin="round"/>
<path d="M21.6465 41.8159H50.3533" stroke="#E5EEF7" stroke-width="2" stroke-miterlimit="10" stroke-linecap="round" stroke-linejoin="round"/>
<path d="M63.8877 32.8125H70.1471C70.7198 32.8125 71.1291 32.1735 70.9626 31.5399C70.6033 30.1713 69.7364 28.1891 67.7297 28.1891H65.0512C64.8984 28.1891 64.7471 28.2239 64.6059 28.2915C64.4648 28.3591 64.3365 28.4583 64.2284 28.5832C64.1204 28.7082 64.0347 28.8565 63.9762 29.0198C63.9178 29.1831 63.8877 29.3581 63.8877 29.5348V32.8125Z" stroke="#E5EEF7" stroke-width="2" stroke-miterlimit="10" stroke-linecap="round" stroke-linejoin="round"/>
<path d="M63.606 32.8125H61.2415" stroke="#E5EEF7" stroke-width="2" stroke-miterlimit="10" stroke-linecap="round" stroke-linejoin="round"/>
<path d="M8.11239 32.8125H1.85295C1.28027 32.8125 0.870977 32.1735 1.03746 31.5399C1.39675 30.1713 2.26365 28.1891 4.27042 28.1891H6.94887C7.10167 28.1891 7.25298 28.2239 7.39415 28.2915C7.53532 28.3591 7.6636 28.4583 7.77164 28.5832C7.87969 28.7082 7.96539 28.8565 8.02386 29.0198C8.08233 29.1831 8.11241 29.3581 8.11239 29.5348V32.8125Z" stroke="#E5EEF7" stroke-width="2" stroke-miterlimit="10" stroke-linecap="round" stroke-linejoin="round"/>
<path d="M8.53491 32.8125H10.8994" stroke="#E5EEF7" stroke-width="2" stroke-miterlimit="10" stroke-linecap="round" stroke-linejoin="round"/>
<path d="M22.5286 49.9216H49.4713V51.276C49.4713 55.0438 46.8303 58.0981 43.5727 58.0981H28.4272C25.1694 58.0981 22.5286 55.0438 22.5286 51.276V49.9216Z" stroke="#E5EEF7" stroke-width="2" stroke-miterlimit="10" stroke-linecap="round" stroke-linejoin="round"/>
</g>
</svg>

<svg width="72" height="76" fill="none" xmlns="http://www.w3.org/2000/svg"><g opacity=".8" stroke="#E5EEF7" stroke-width="2" stroke-miterlimit="10" stroke-linecap="round" stroke-linejoin="round"><path d="M59.578 12.23C58.574 8.06 55.27 5 51.346 5c-4.72 0-8.546 4.425-8.546 9.884 0 5.46 3.826 9.885 8.546 9.885 3.92 0 7.223-3.056 8.229-7.22M12.832 28.18l1.646-4.831c1.377-4.045 4.752-6.702 8.51-6.702h19.52M57.266 22.668c.092.223.178.45.257.68l1.644 4.832"/><path d="M56.162 23.63c1.349 1.164 2.39 2.74 3.005 4.55l2.23 6.549M10.603 34.729l2.23-6.549c1.358-3.994 4.692-6.62 8.404-6.62h23.252M14.863 66.957v1.307c0 1.511-1.059 2.736-2.366 2.736H7.475c-1.307 0-2.367-1.225-2.367-2.736V65.31M66.892 65.31v2.954c0 1.511-1.06 2.736-2.367 2.736h-5.022c-1.307 0-2.366-1.225-2.366-2.736v-1.307M22.106 49.922H4.364M67.636 49.922H49.894M43.855 58.098h8.231c.412 0 .807-.19 1.099-.526l1.185-1.371c.857-.99 2.019-1.547 3.23-1.547h10.036M4.364 54.654H14.4c1.212 0 2.373.556 3.23 1.547l1.186 1.371c.29.337.686.526 1.098.526h8.232"/><path d="M25.681 66.63h37.86c2.572 0 4.658-2.413 4.658-5.39V41.93c0-.781-.185-1.547-.534-2.215a3.988 3.988 0 0 0-1.448-1.575l-5.09-3.086H48.856M44.256 35.053H10.873l-5.09 3.085a3.988 3.988 0 0 0-1.448 1.576 4.794 4.794 0 0 0-.534 2.215V61.24c0 2.976 2.086 5.388 4.659 5.388h12.621M57.77 58.755h3.188M11.042 58.755h3.188"/><path d="M7.14 37.89v5.603a1 1 0 0 0 .199.606.762.762 0 0 0 .497.3l8.758 1.194c1.204.164 2.418-.17 3.43-.94l1.564-1.194c.566-.431.43-1.433-.223-1.643l-8.028-2.58a.649.649 0 0 1-.063-.024l-5.07-2.178c-.516-.221-1.065.22-1.065.857ZM64.861 37.89v5.603c0 .223-.07.44-.2.606a.762.762 0 0 1-.497.3l-8.758 1.194c-1.203.164-2.418-.17-3.43-.94l-1.564-1.194c-.566-.431-.43-1.433.223-1.643l8.028-2.58a.649.649 0 0 0 .063-.024l5.07-2.178c.516-.221 1.065.22 1.065.857ZM21.646 41.816h28.707M63.888 32.813h6.26c.572 0 .981-.64.815-1.273-.36-1.369-1.227-3.35-3.233-3.35H65.05c-.153 0-.304.034-.445.101a1.17 1.17 0 0 0-.378.292 1.378 1.378 0 0 0-.252.437 1.533 1.533 0 0 0-.088.515v3.277ZM63.606 32.813h-2.364M8.112 32.813h-6.26c-.572 0-.981-.64-.815-1.273.36-1.369 1.227-3.35 3.233-3.35H6.95c.153 0 .304.034.445.101.141.068.27.167.378.292.108.125.193.274.252.437.058.163.088.338.088.515v3.277ZM8.535 32.813h2.364M22.529 49.922H49.47v1.354c0 3.768-2.64 6.822-5.898 6.822H28.427c-3.258 0-5.898-3.054-5.898-6.822v-1.354Z"/></g></svg>
